Adwaita/scalable/actions/object-flip-horizontal-symbolic.svg

<?xml version="1.0" encoding="UTF-8"?>
<svg height="16px" viewBox="0 0 16 16" width="16px" xmlns="http://www.w3.org/2000/svg">
    <g fill="#2e3436">
        <path d="m 13 9 v -2 h -10 v 2 z m 0 0"/>
        <path d="m 10 4 v 1 c 0 0.257812 0.128906 0.527344 0.3125 0.71875 l 2.28125 2.28125 l -2.28125 2.28125 c -0.183594 0.191406 -0.3125 0.460938 -0.3125 0.71875 v 1 h 1 c 0.308594 0 0.550781 -0.089844 0.75 -0.28125 l 3.65625 -3.71875 l -3.65625 -3.71875 c -0.199219 -0.191406 -0.441406 -0.28125 -0.75 -0.28125 z m 0 0"/>
        <path d="m 6 4 v 1 c 0 0.257812 -0.128906 0.527344 -0.3125 0.71875 l -2.28125 2.28125 l 2.28125 2.28125 c 0.183594 0.191406 0.3125 0.460938 0.3125 0.71875 v 1 h -1 c -0.308594 0 -0.550781 -0.089844 -0.75 -0.28125 l -3.65625 -3.71875 l 3.65625 -3.71875 c 0.199219 -0.191406 0.441406 -0.28125 0.75 -0.28125 z m 0 0"/>
    </g>
</svg>

<svg xmlns="http://www.w3.org/2000/svg" width="16" height="16"><g font-weight="400" fill="#474747"><path d="M3 7v2h10V7z" style="line-height:normal;font-variant-ligatures:normal;font-variant-position:normal;font-variant-caps:normal;font-variant-numeric:normal;font-variant-alternates:normal;font-feature-settings:normal;text-indent:0;text-align:start;text-decoration-line:none;text-decoration-style:solid;text-decoration-color:#000;text-transform:none;text-orientation:mixed;shape-padding:0;isolation:auto;mix-blend-mode:normal;marker:none" color="#000" font-family="sans-serif" overflow="visible"/><path d="M10 4v1c0 .257.13.528.313.719L12.593 8l-2.28 2.281c-.183.19-.313.462-.313.719v1h1c.31 0 .552-.09.75-.281L15.406 8 11.75 4.281C11.552 4.091 11.31 4 11 4zM6 4v1c0 .257-.13.528-.312.719L3.406 8l2.282 2.281c.182.19.312.462.312.719v1H5c-.31 0-.552-.09-.75-.281L.594 8 4.25 4.281C4.448 4.091 4.69 4 5 4z" style="line-height:normal;-inkscape-font-specification:'Bitstream Vera Sans';text-indent:0;text-align:start;text-decoration-line:none;text-transform:none;marker:none" color="#bebebe" font-family="Bitstream Vera Sans" overflow="visible"/></g></svg>
